libs/ui/packages/crypto-icons/src/svg/APT.svg

<svg width="24" height="24" viewBox="0 0 24 24" fill="none"><path fill="#000" fill-rule="evenodd" d="M15.246 4.794c.096 0 .192-.02.277-.059a.7.7 0 0 0 .233-.159l1.022-1.057A.6.6 0 0 1 17 3.367a.6.6 0 0 1 .266-.055h.047q.144.002.277.059c.087.04.167.098.229.169l.862.964a.88.88 0 0 0 .648.285h2.304A12.05 12.05 0 0 0 12.007.001c-1.867 0-3.711.433-5.381 1.263a12 12 0 0 0-4.248 3.525h12.876zm1.218 3.236h6.904c.338.954.548 1.948.632 2.959h-8.949a.9.9 0 0 1-.358-.073.9.9 0 0 1-.289-.214l-.863-.967a.7.7 0 0 0-.228-.166.8.8 0 0 0-.277-.057h-.042a.68.68 0 0 0-.49.207l-1.024 1.059a.7.7 0 0 1-.51.219H0a12 12 0 0 1 .631-2.959h11.618c.18 0 .358-.037.524-.111q.25-.112.431-.317l.74-.832a.65.65 0 0 1 .227-.164.7.7 0 0 1 .28-.057c.094 0 .19.021.277.057a.65.65 0 0 1 .226.164l.865.969a.86.86 0 0 0 .645.291zm-9.549 9.124a.7.7 0 0 1-.276.059l-5.485.008a12 12 0 0 1-.989-2.988h7.813a1.3 1.3 0 0 0 .954-.428l.738-.829a.7.7 0 0 1 .23-.169.56.56 0 0 1 .276-.057.65.65 0 0 1 .278.06.8.8 0 0 1 .228.171l.863.964a.8.8 0 0 0 .291.211.85.85 0 0 0 .352.077h11.65a11.8 11.8 0 0 1-.993 2.98H10.71a.9.9 0 0 1-.356-.08.8.8 0 0 1-.289-.214l-.859-.966a.7.7 0 0 0-.229-.166.7.7 0 0 0-.278-.057h-.045a.7.7 0 0 0-.489.206l-1.021 1.063a.7.7 0 0 1-.232.159zm.544 3.018h3.156l10.199.017a12.1 12.1 0 0 1-4.003 2.817 12.1 12.1 0 0 1-9.601 0 12.1 12.1 0 0 1-4.002-2.817h.046a1.27 1.27 0 0 0 .954-.43l.741-.846a.67.67 0 0 1 .506-.222.66.66 0 0 1 .506.222l.858.966q.122.138.292.215a.9.9 0 0 0 .353.078z" clip-rule="evenodd"/></svg>

<svg width="24" height="24" viewBox="0 0 24 24" fill="none">
  <path fill-rule="evenodd" clip-rule="evenodd" d="M 15.246 4.794 C 15.342 4.794 15.438 4.774 15.523 4.735 C 15.611 4.699 15.689 4.645 15.756 4.576 L 16.778 3.519 C 16.84 3.453 16.916 3.399 17 3.367 C 17.083 3.329 17.176 3.312 17.266 3.312 L 17.313 3.312 C 17.408 3.312 17.502 3.334 17.59 3.371 C 17.677 3.411 17.757 3.469 17.819 3.54 L 18.681 4.504 C 18.764 4.595 18.865 4.666 18.976 4.715 C 19.087 4.766 19.208 4.789 19.329 4.789 L 21.633 4.789 C 20.514 3.304 19.057 2.097 17.387 1.264 C 15.715 0.434 13.872 0.001 12.007 0.001 C 10.14 0.001 8.296 0.434 6.626 1.264 C 4.954 2.093 3.502 3.3 2.378 4.789 L 15.254 4.789 L 15.246 4.794 Z M 16.464 8.03 L 23.368 8.03 C 23.706 8.984 23.916 9.978 24 10.989 L 15.051 10.989 C 14.926 10.989 14.806 10.964 14.693 10.916 C 14.581 10.866 14.484 10.791 14.404 10.702 L 13.541 9.735 C 13.475 9.666 13.401 9.607 13.313 9.569 C 13.224 9.534 13.13 9.512 13.036 9.512 L 12.994 9.512 C 12.901 9.512 12.811 9.528 12.728 9.565 C 12.644 9.602 12.566 9.653 12.504 9.719 L 11.48 10.778 C 11.412 10.85 11.335 10.903 11.247 10.941 C 11.158 10.977 11.065 10.997 10.97 10.997 L 0 10.997 C 0.084 9.992 0.294 8.996 0.631 8.038 L 12.249 8.038 C 12.429 8.038 12.607 8.001 12.773 7.927 C 12.94 7.852 13.084 7.747 13.204 7.61 L 13.944 6.778 C 14.006 6.71 14.084 6.65 14.171 6.614 C 14.259 6.578 14.354 6.557 14.451 6.557 C 14.545 6.557 14.641 6.578 14.728 6.614 C 14.814 6.65 14.893 6.71 14.954 6.778 L 15.819 7.747 C 15.898 7.836 15.997 7.911 16.109 7.961 C 16.222 8.009 16.341 8.038 16.464 8.038 L 16.464 8.03 Z M 6.915 17.154 C 6.828 17.192 6.734 17.213 6.639 17.213 L 1.154 17.221 C 0.694 16.272 0.361 15.269 0.165 14.233 L 7.978 14.233 C 8.161 14.233 8.339 14.193 8.501 14.121 C 8.666 14.046 8.811 13.939 8.932 13.805 L 9.67 12.976 C 9.732 12.906 9.81 12.848 9.9 12.807 C 9.987 12.765 10.081 12.745 10.176 12.75 C 10.272 12.75 10.367 12.769 10.454 12.81 C 10.541 12.853 10.62 12.911 10.682 12.981 L 11.545 13.945 C 11.625 14.038 11.724 14.108 11.836 14.156 C 11.948 14.207 12.068 14.233 12.188 14.233 L 23.838 14.233 C 23.643 15.264 23.306 16.267 22.845 17.213 L 10.71 17.213 C 10.587 17.213 10.467 17.184 10.354 17.133 C 10.244 17.085 10.143 17.01 10.065 16.919 L 9.206 15.953 C 9.139 15.882 9.065 15.825 8.977 15.787 C 8.89 15.749 8.795 15.73 8.699 15.73 L 8.654 15.73 C 8.563 15.73 8.471 15.749 8.389 15.783 C 8.306 15.82 8.227 15.87 8.165 15.936 L 7.144 16.999 C 7.077 17.069 6.999 17.123 6.912 17.158 L 6.915 17.154 Z M 7.459 20.172 L 10.615 20.172 L 20.814 20.189 C 19.684 21.39 18.324 22.352 16.811 23.006 C 15.296 23.661 13.662 23.999 12.01 23.999 C 10.358 23.999 8.724 23.661 7.21 23.006 C 5.697 22.348 4.331 21.39 3.208 20.189 L 3.254 20.189 C 3.431 20.189 3.61 20.152 3.776 20.078 C 3.942 20.003 4.087 19.896 4.208 19.759 L 4.949 18.913 C 5.012 18.842 5.091 18.786 5.178 18.747 C 5.264 18.712 5.36 18.691 5.455 18.691 C 5.55 18.691 5.647 18.712 5.734 18.747 C 5.821 18.786 5.899 18.842 5.961 18.913 L 6.819 19.879 C 6.899 19.97 6.999 20.044 7.111 20.094 C 7.222 20.143 7.343 20.172 7.464 20.172 L 7.459 20.172 Z" fill="#000" />
</svg>
